X:1
T:Down Ampney, 66.11 D
T:Down Ampney, 66.11 D
T:Ralph Vaughan Williams, 1906 
T:Public Domain Courtesy of the Cyber Hymnal™
C:Ralph Vaughan Williams, 1906
Z:Public Domain
Z:Courtesy of the Cyber Hymnal™
%%score ( 1 2 ) ( 3 4 )
L:1/8
M:none
K:D
V:1 treble 
V:2 treble 
V:3 bass 
V:4 bass 
V:1
 [A,D]4 [A,E]2 [DF]2 | A4 B4 | [DA]8 | [FA]4 [FB]2 [EA]2 | [Dd]2 [Ec]2 [DB]4 | [CA]4 [DA]4 | %6
 [DB]2 [CA]2 [DG]2 [DF]2 | [B,E]2 D2 [DE]2 (FG) | E4 D8 | [Fd]4 [Fc]2 [DB]2 | [FA]4 B4 | [CA]8 | %12
 [E=c]4 [DB]2 [DA]2 | G4 [DF]4 | [A,E]4 [CE]4 | [DA]2 [DB]2 [CA]2 G2 | [A,F]2 D2 [DE]2 (FG) | %17
 E4 D4 |] %18
V:2
 x8 | (D2 C2) (B,2 C2) | x8 | x8 | x8 | x8 | x8 | x2 D2 D2 x2 | (D2 C2) D8 | x8 | x4 (E2 D2) | x8 | %12
 x8 | (B,2 C2) x4 | x8 | x6 (DE) | x2 D2 D2 x2 | (D2 C2) D4 |] %18
V:3
 [D,F,]4 [C,A,]2 D,2 | [A,,E,]4 (G,2 E,2) | [D,F,]8 | [D,A,]4 D,2 [C,E,]2 | %4
 [B,,F,]2 [C,A,]2 (A,2 ^G,2) | [A,,A,]4 [D,F,]4 | [G,,G,]2 [A,,E,]2 [B,,G,]2 [D,A,]2 | %7
 G,2 [F,A,]2 [G,B,]2 [E,B,]2 | (A,3 G,) [D,F,]8 | B,4 [F,A,]2 [G,B,]2 | [D,D]2 [F,C]2 [^G,B,]4 | %11
 [A,C]8 | [E,G,]2 [F,A,]2 [G,B,]2 [D,F,]2 | [E,G,]4 [F,A,]2 [G,B,]2 | [A,C]4 A,4 | %15
 [G,,A,]2 [G,,G,]2 [A,,E,]2 B,2 | [D,A,]2 [F,A,]2 [G,B,]2 [E,G,]2 | (A,3 G,) [D,F,]4 |] %18
V:4
 x6 D,2 | x4 G,,4 | x8 | x4 D,2 x2 | x4 E,4 | x8 | x8 | G,2 x6 | A,,4 x8 | B,4 x4 | x8 | x8 | x8 | %13
 x8 | x4 (A,,2 G,,2) | x6 (B,,C,) | x8 | A,,4 x4 |] %18

